gama.ui.shared/icons_svg/light/viewers/erase.contents.svg

<svg height="25" viewBox="-793 -3425.887 25 25" width="25" xmlns="http://www.w3.org/2000/svg"><g fill="none"><circle cx="-780.5" cy="-3413.387" fill="#fff" r="12"/><circle cx="-780.5" cy="-3413.387" r="12" stroke="#000" stroke-linecap="round" stroke-linejoin="round" stroke-width=".25"/><path d="m-781.5214-3406.279h.2665c.3908-.0265.7638-.1953 1.0569-.4884l.6217-.6216-6.9276-6.9187-.6217.6217c-.6572.6572-.6572 1.732 0 2.389l4.5385 4.5385c.29305.2931.675.4619 1.0569.4885zm2.0872 0h4.6983c.2487 0 .44405.1955.44405.444 0 .249-.19535.4443-.44405.4443h-6.4924c-.10655 0-.222 0-.3286 0h-4.7249c-.2487 0-.4441-.1953-.4441-.4443 0-.2485.1954-.444.4441-.444h2.9309l-4.3964-4.3962c-1.0036-1.0038-1.0036-2.6378 0-3.6414l6.3148-6.3147c1.0036-1.0037 2.63775-1.0037 3.6414 0l4.5384 4.5383c1.0036 1.0037 1.0036 2.638 0 3.6415l-6.1726 6.1725zm-6.4391-8.6593 6.9187 6.9187 5.0624-5.0624c.65725-.6573.65725-1.732 0-2.389l-4.5295-4.5297c-.6573-.6573-1.7319-.6573-2.3891 0z" fill="#9f4c4d"/></g></svg>

<?xml version="1.0" encoding="UTF-8" standalone="no"?>
<!DOCTYPE svg PUBLIC "-//W3C//DTD SVG 1.1//EN" "http://www.w3.org/Graphics/SVG/1.1/DTD/svg11.dtd">
<svg xmlns:dc="http://purl.org/dc/elements/1.1/" xmlns:xl="http://www.w3.org/1999/xlink" version="1.1" xmlns="http://www.w3.org/2000/svg" viewBox="-793 -3425.8874 24.999996 25" width="24.999996" height="25">
  <defs/>
  <g id="SOURCES" stroke-dasharray="none" stroke="none" stroke-opacity="1" fill="none" fill-opacity="1">
    <title>SOURCES</title>
    <g id="SOURCES_Calque_2">
      <title>Calque 2</title>
      <g id="Graphic_9851">
        <circle cx="-780.5" cy="-3413.3874" r="12.0000182688381" fill="white"/>
        <circle cx="-780.5" cy="-3413.3874" r="12.0000182688381" stroke="black" stroke-linecap="round" stroke-linejoin="round" stroke-width=".25"/>
      </g>
      <g id="Group_9846">
        <title>eraser</title>
        <g id="Graphic_9847">
          <path d="M -781.5214 -3406.279 L -781.2549 -3406.279 C -780.8641 -3406.3055 -780.4911 -3406.4743 -780.198 -3406.7674 L -779.5763 -3407.389 L -786.5039 -3414.3077 L -787.1256 -3413.686 C -787.7828 -3413.0288 -787.7828 -3411.954 -787.1256 -3411.297 L -782.5871 -3406.7585 C -782.29405 -3406.4654 -781.9121 -3406.2966 -781.5302 -3406.27 Z M -779.4342 -3406.279 L -774.7359 -3406.279 C -774.4872 -3406.279 -774.29185 -3406.0835 -774.29185 -3405.835 C -774.29185 -3405.586 -774.4872 -3405.3907 -774.7359 -3405.3907 L -781.2283 -3405.3907 C -781.33485 -3405.3907 -781.4503 -3405.3907 -781.5569 -3405.3907 L -786.2818 -3405.3907 C -786.5305 -3405.3907 -786.7259 -3405.586 -786.7259 -3405.835 C -786.7259 -3406.0835 -786.5305 -3406.279 -786.2818 -3406.279 L -783.3509 -3406.279 L -787.7473 -3410.6752 C -788.7509 -3411.679 -788.7509 -3413.313 -787.7473 -3414.3166 L -781.4325 -3420.6313 C -780.4289 -3421.635 -778.79475 -3421.635 -777.7911 -3420.6313 L -773.2527 -3416.093 C -772.2491 -3415.0893 -772.2491 -3413.455 -773.2527 -3412.4515 L -779.4253 -3406.279 Z M -785.8733 -3414.9383 L -778.9546 -3408.0196 L -773.8922 -3413.082 C -773.23495 -3413.7393 -773.23495 -3414.814 -773.8922 -3415.471 L -778.4217 -3420.0007 C -779.079 -3420.658 -780.1536 -3420.658 -780.8108 -3420.0007 Z" fill="#9f4c4d"/>
        </g>
      </g>
    </g>
  </g>
</svg>
